X: 1
M:6/8
L:1/8
K:G
d/2c/2|BGB AFA|BGB Bdc|BGB A2 G|FGA Bdc|
|:Bdd d2 e|dBG ABc|Bdd d2 B|AFA ABc|
|:BGG BGd|BGG ABc|BGG BGd|AFA ABc|
|:Bdd dBg|dBG ABc|Bdd dcB|AFA ABc|

